X:237
T: Kohlerlied (3-40), S. 122
N: P1012
O: Lothringen
S: PINCK, Louis: Verklingende Weisen, Bd3, Metz 1933]
R: Berufslied]
M: 3/4
L: 1/4
K: G
D | D2F | G2A | F2G | AG
A | ABA | GFE | DDD | D2
A | GAG | AAG | cBA | B2
D | B2A | ABG | DEF | G2

